X: 42387
T: Wellerman, The
R: polka
M: 2/4
K: Eminor
BE E/E/G BB B>B|cA A/A/c eB B2|EE/E/ EG BB B>B|BAGF E4|
e2 e>c dB B>B|cA A/A/c eB B2|e2 ec/c/ d/d/B B>B|BAGF E4|
K: Bmin
fB B/B/d ff f>f|ge e/e/g bf f2|BB/B/ Bd ff f>f|fedc B4|
b2 b>g af f>f|ge e/e/g bf f2|b2 bg/g/ a/a/f f>f|fedc B4|
K: Amin
eA A/A/c ee e>e|fd d/d/f ae e2|AA/A/ Ac ee e>e|edcB A4|
a2 a>f ge e>e|fd d/d/f ae e2|a2 af/f/ g/g/e e>e|edcB A4|

